X: 1
T: String Quartet in G Major opus 76 no 1 mvt 2
C: Franz Joseph Haydn
%%abc-version 2.0
%%abcx-abcm2ps-target-version 5.9.1 (29 Sep 2008)
%%abc-creator hum2abc beta
%%abcx-conversion-date 2021/02/14 14:38:22
%%abc-copyright Copyright (c) 1994, 2000 Center for Computer Assisted Research in the Humanities
%%abc-edited-by Frances Bennion
%%abcx-initial-encoding-date 1997/04/15
%%gracespace 0 6 6
%%humdrum-veritas 18588693
%%humdrum-veritas-data 2259051594
%%linebreak <none>
%%barnumbers 0
L: 1/16
M: 2/4
N: Derived from op76n1-02.krn
Q: "Adagio sostenuto"
%%staves [1 2 3 4]
V: 1
V: 2
V: 3 clef=alto
V: 4 clef=bass
K: C
[V:1]E4 D4 [I:setbarnb2]|
[V:2]C4 B,4 |
[V:3]G,4 F,4 |
[V:4]C,4 G,,4 |
[V:1]C2>^C2 D2E2 |
[V:2]A,6 ^C2 |
[V:3]E,4 F,2G,2 |
[V:4]A,,2>G,,2 F,,2E,,2 |
[V:1]F2A2 G2F2 |
[V:2]D2E2 D2D2 |
[V:3]A,2E,>F, G,2G,2 |
[V:4]D,,2[C,,2C,2] B,,2B,,2 |
[V:1]E4 D3^D |
[V:2]C4 B,4 |
[V:3]G,8 |
[V:4]C,2E,2 G,4 |
[V:1]E4 D4 |
[V:2]C4 B,4 |
[V:3]G,4 F,4 |
[V:4]C,,4 ^G,,4 |
[V:1]C4 D2E2 |
[V:2]A,4 _B,4 |
[V:3]E,4 F,2G,2 |
[V:4]A,,4 G,,4 |
[V:1]F2(3AFD C2(3B,DG |
[V:2]C2F2 E2[G,2D2] |
[V:3]A,4 G,2B,2 |
[V:4]F,,4 G,,4 |
[V:1]F4 E2z2 |
[V:2][G,4D4] E2z2 |
[V:3]B,4 C2z2 |
[V:4]C,,4- C,,C,E,G, |
[V:1]e4 d4 |
[V:2]c4 B4 |
[V:3]G4 F4 |
[V:4]C4 ^G,4 |
[V:1]c2>^c2 d2e2 |
[V:2]c2>_B2 A2^c2 |
[V:3]E4 F2G2 |
[V:4]A,2>G,2 F,2E,2 |
[V:1]f2a2 g2f2 |
[V:2]d2e2 d2d2 |
[V:3]A2E>F G2G2 |
[V:4][D2D,2]C2 B,2B,2 |
[V:1]e4 d3e |
[V:2]c4 B4 |
[V:3]G8 |
[V:4]C4 G,4 |
[V:1]f4 e4 |
[V:2]d4 ^c4 |
[V:3]A4 G4 |
[V:4]D,4 A,4 |
[V:1]d2e2 f2^f2 |
[V:2]d2c4 _e2 |
[V:3]F2G2 A2c2 |
[V:4]_B,4 A,2_A,2 |
[V:1](3:2:2g4-g/fe d|
[V:2]e4 d4 |
[V:3]c4 B4 |
[V:4]G,4 G,,4 |
[V:1]c4 z4 |
[V:2]eEEE EEEE |
[V:3]cCCC CCCC |
[V:4]C,2zC, ^G,,A,,E,,^F,, |
[V:1]z/G/A/B/c/d/e/^f/ g/f/g/a/g/_b/a/g/ |
[V:2]DDDD DDEE |
[V:3]CCCC B,B,^CC |
[V:4]G,,4 z4 |
[V:1]f2z6 |
[V:2]FFFF FFFF |
[V:3]DDDD DDDD |
[V:4]z2>D,2 A,,_B,,F,,G,, |
[V:1]z/A/B/^c/d/e/f/^g/ a/g/a/g/a/_b/a/=g/ |
[V:2]EEEE EEEE |
[V:3]DDDD ^CCCC |
[V:4]A,,2z6 |
[V:1]f2zd' a_bfg |
[V:2]FFFF FFFF |
[V:3]DDDD DDDD |
[V:4]z8 |
[V:1]a2z6 |
[V:2]EEEE EEEE |
[V:3]DDDD ^CCCC |
[V:4]z/A,,/B,,/^C,/D,/E,/F,/^G,/ A,/=G,/A,/G,/A,/_B,/A,/G,/ |
[V:1]z/a/^g/a/e/f/^c/d/ ^G/A/c/d/e/f/g/a/ |
[V:2]FDAA AAAA |
[V:3]DDDD [FA,][FA,][FA,][FA,] |
[V:4]F,F,F,F, F,F,F,F, |
[V:1]c2B/^F/G/B/ d/f/g/b/d'/b/g/f/ |
[V:2]DDDD BBBd |
[V:3][FG,]FFF FDFB, |
[V:4]G,G,G,G, G,G,G,G, |
[V:1]fez/e'/^d'/e'/ b/c'/^g/a/b/c'/=d'/e'/ |
[V:2]GG^GG AAAA |
[V:3]CEEE EEEE |
[V:4]CCCC CCCC |
[V:1]g/^f/z/e'/z/d'/z/c'/ z/b/z/a/z/g/z/f/ |
[V:2][AD][AD][AD][AD] [AD][AD][DA][AD] |
[V:3]D^FFF FFFA |
[V:4]CCCC CCCC |
[V:1]z/a/z/g/z/e'/z/d'/ z/c'/z/b/z/a/z/g/ |
[V:2]GGGG GGGG |
[V:3]DDDD DDDD |
[V:4]B,B,B,B, B,B,B,B, |
[V:1]z/^g/z/g/z/g/z/g/ z/a/z/a/z/a/z/a/ |
[V:2]DDDD DDDD |
[V:3]DDDD CCCC |
[V:4]^F,F,F,F, F,F,F,F, |
[V:1]z/_b/z/b/z/b/z/b/ z/bb/z/bb/ |
[V:2]DDDD DDDD |
[V:3]_B,B,B,B, _A,A,A,A, |
[V:4]G,G,G,G, F,F,F,F, |
[V:1]z/[_b_B][bB][bB][b/B/]z/ [bB][Bb][bB][b/B/]|
[V:2]_EEEE GGGG |
[V:3]G,G,G,G, ^CCCC |
[V:4]_E,E,E,E, _E,,E,,E,,E,, |
[V:1]z/[Bb][Bb][bB][b/B/]z/ g/d/b/g/b/g/d'/|
[V:2][GB][BG][BG][BG] [G2B2]z2 |
[V:3]D[DG,][G,D][DG,] [G,2D2]z2 |
[V:4]D,,D,,D,,D,, D,,2z2 |
[V:1]b/d'/b/g'/d'/g'/d'/b'/ g'/b'/g'/d'/b/d'/g'/d'/ |
[V:2]z8 |
[V:3]z8 |
[V:4]z8 |
[V:1]b'2z2 ^F2z2 |
[V:2]G2z2 A2z2 |
[V:3]D2z2 D2z2 |
[V:4]D2z2 D,2z2 |
[V:1]B4 A4 |
[V:2]G4 ^F4 |
[V:3]D4 C4 |
[V:4]G,,4 D,4 |
[V:1]G4 ^G4 |
[V:2]E8- |
[V:3]B,4 E,3^F, |
[V:4]E,4 C,4 |
[V:1]A6 ^A2 |
[V:2]E4 D4 |
[V:3]G,4 ^F,4 |
[V:4]^C,4 D,4 |
[V:1](3:2:2B4-B/DG B|
[V:2]D8 |
[V:3]G,8 |
[V:4]G,,8 |
[V:1]d4 ^d4 |
[V:2]B8- |
[V:3]B4 A4 |
[V:4]G4 ^F4 |
[V:1]e2f4 e2 |
[V:2]B2d4 c2 |
[V:3]G2G4 G2 |
[V:4]E2B,4 C2 |
[V:1](3:2:2d4-d/cB A|
[V:2]B4 A4 |
[V:3]G4 ^F4 |
[V:4]D8 |
[V:1]G2z6 |
[V:2]GGGG GGGG |
[V:3]GB,B,B, B,B,B,B, |
[V:4]G,2zG, ^D,E,B,,^C, |
[V:1]z/D/E/^F/G/A/B/^c/ d/c/d/e/d/f/e/d/ |
[V:2]G^FFF =FF^GG |
[V:3]A,A,A,A, A,A,B,B, |
[V:4]D,4 z2E,,2 |
[V:1]c2z6 |
[V:2]AAAA AAAA |
[V:3]CCCC CCCC |
[V:4]A,,2zA, E,F,C,D, |
[V:1]z/E/^F/^G/A/B/c/^d/ e/d/e/d/e/f/e/=d/ |
[V:2]A^GGG =GGGG |
[V:3]B,B,B,B, B,B,_B,G/F/ |
[V:4]E,4 z4 |
[V:1]^c4 =c/B/c/B/c/e/d/c/ |
[V:2]G/^F/G/F/G/_B/A/G/ F4 |
[V:3]E/^D/E/D/E/G/F/E/ =D4 |
[V:4]A,,4 D,/^F,/A,/^G,/A,/C/B,/A,/ |
[V:1]B4 c/B/c/B/c/g/f/e/ |
[V:2]F/E/F/E/F/A/G/F/ E/^D/E/D/E/e/d/c/ |
[V:3]D/^C/D/C/D/F/E/D/ =C4 |
[V:4]G,8- |
[V:1]d/^c/d/c/d/a/g/f/ e/^d/e/d/e/g/f/e/ |
[V:2]B2-B/f/e/d/ c/B/c/B/c/e/d/c/ |
[V:3]F/E/F/E/F/B,/C/D/ E2-E/C/D/E/ |
[V:4]G,8 |
[V:1]d/e/f/e/g/f/a/g/ f/e/a/g/f/e/a/g/ |
[V:2]B/^c/d/c/e/d/f/e/ d/c/f/e/d/c/f/e/ |
[V:3]F4 z4 |
[V:4]G,,4 z4 |
[V:1]f/^g/a/g/a/g/a/=g/ f/e/d/c/B/A/G/F/ |
[V:2]d/e/f/e/f/e/f/e/ d/c/B/A/G/F/E/D/ |
[V:3]z8 |
[V:4]z8 |
[V:1]E4 D4 |
[V:2]C4 B,4 |
[V:3]G,4 F,4 |
[V:4]C,,4 G,,4 |
[V:1]C2>^C2 D2E2 |
[V:2]A,6 ^C2 |
[V:3]E,4 F,2G,2 |
[V:4]A,,2>G,,2 F,,2E,,2 |
[V:1]F2A2 G2F2 |
[V:2]D2E2 D2D2 |
[V:3]A,2E,>F, G,2G,2 |
[V:4]D,,2[C,,2C,2] B,,2B,,2 |
[V:1]E4 D3E |
[V:2]C4 B,4 |
[V:3]G,8 |
[V:4]C,2E,2 G,4 |
[V:1]F4 E4 |
[V:2]D4 ^C4 |
[V:3]A,4 G,4 |
[V:4]D,,4 A,,4 |
[V:1]D2E2 F2^F2 |
[V:2]D2C4 _E2 |
[V:3]F,2G,2 A,2C2 |
[V:4]_B,,4 A,,2_A,,2 |
[V:1](3:2:2G4-G/FE D|
[V:2]E4 D4 |
[V:3]C4 B,4 |
[V:4]G,,8 |
[V:1]C2zc G_A_EF |
[V:2]C_EEE EEEE |
[V:3]CCCC CCCC |
[V:4]C,4 z4 |
[V:1]G2z6 |
[V:2]DDDG GGGG |
[V:3]CB,B,_B, B,B,B,B, |
[V:4]z2>G,2 D,_E,_B,,C, |
[V:1]z2>d2 A_BFG |
[V:2]G^FF=F FFFF |
[V:3]A,A,A,D DDDD |
[V:4]D,2z6 |
[V:1]A2z6 |
[V:2]EEEA AAAA |
[V:3]D^CC=C CCCC |
[V:4]z2>A,,2 E,,F,,C,,D,, |
[V:1]z2>f2 ^cded |
[V:2]A^GGG GGGG |
[V:3]CB,B,D ^A,B,CB, |
[V:4]E,,4 E,4 |
[V:1]c/a/z/g/z/f/z/e/ z/^d/z/e/z/f/z/g/ |
[V:2]Accc cccc |
[V:3]A,AAA AAAA |
[V:4]F,FFF FFFF |
[V:1]z/a/z/g/z/f/z/e/ z/^d/z/e/z/f/z/g/ |
[V:2]cccc cccc |
[V:3]AAAA AAAA |
[V:4]FFFF FFFF |
[V:1]z/a/z/g/z/f/z/e/ z/_e/z/d/z/e/z/d/ |
[V:2]cccc cccc |
[V:3]AAAA AAAA |
[V:4]FFFF ^FFFF |
[V:1]z/a/z/_e/z/d/z/a/ z/e/z/d/z/e/z/d/ |
[V:2]cccc cccc |
[V:3]AAAA AAAA |
[V:4]^FFFF FFFF |
[V:1]z/f'/z/e'/z/d'/z/c'/ z/b/z/a/z/g/z/f/ |
[V:2]z/d'/z/c'/z/b/z/a/ z/g/z/f/z/e/z/d/ |
[V:3]B,CDE FGAB |
[V:4][G,,G,]A,B,C DEFG |
[V:1]eeee eeee |
[V:2]cccc cccc |
[V:3]z/E/z/D/z/C/z/B,/ z/A,/z/G,/z/F,/z/E,/ |
[V:4]z/C/z/B,/z/A,/z/G,/ z/F,/z/E,/z/D,/z/C,/ |
[V:1][c2a2F2](3:2:2z8 z//d/|
[V:2][a2c2F2]z4 z3/g/ |
[V:3]F,2z4 z3/B/ |
[V:4]F,,2z4 z3/F/ |
[V:1]g2(3:2:2z8 z//c/|
[V:2]c2z4 z3/A/ |
[V:3]G2z4 z3/F/ |
[V:4]E2z4 z3/E/ |
[V:1]f2z>f _a2z3/a/ |
[V:2]A2z>A _A2z3/A/ |
[V:3]F2z>F _E2z3/E/ |
[V:4]D2z>D C2z3/C/ |
[V:1]g2z>f ezdz |
[V:2]D2z>D CzFz |
[V:3]G2z>B czAz |
[V:4]B,2z>G, A,zF,z |
[V:1]c2z2 B2z2 |
[V:2]E2z2 D2z2 |
[V:3]G2z2 F2z2 |
[V:4]G,2z2 G,2z2 |
[V:1]E4 D4 |
[V:2]C4 B,4 |
[V:3]G,4 F,4 |
[V:4]C,,4 G,,4 |
[V:1]C2>^C2 D2E2 |
[V:2]A,6 ^C2 |
[V:3]E,4 F,2G,2 |
[V:4]A,,2>G,,2 F,,2E,,2 |
[V:1]F2A2 G2F2 |
[V:2]D2E2 D2D2 |
[V:3]A,2E,>F, G,2G,2 |
[V:4]D,,2[C,,2C,2] B,,2B,,2 |
[V:1]E4 D3^D |
[V:2]C4 B,4 |
[V:3]G,8 |
[V:4]C,2E,2 G,4 |
[V:1]E4 D4 |
[V:2]C4 B,4 |
[V:3]G,4 F,4 |
[V:4]C,,4 ^G,,4 |
[V:1]C4 D2E2 |
[V:2]A,4 _B,4 |
[V:3]E,4 F,2G,2 |
[V:4]A,,4 G,,4 |
[V:1]F2(3AFD C2(3B,DF |
[V:2]C2F2 E2D2 |
[V:3]A,4 G,2B,2 |
[V:4]F,,4 G,,4 |
[V:1]E2z4 z/G/E/C/ |
[V:2]CEEE EEEE |
[V:3]CCCC CCCC |
[V:4]C,2z/E,/B,,/C,/ ^F,,/G,,/^D,,/E,,/C,,/E,,/G,,/C,/ |
[V:1]G,2z4 z/d/B/F/ |
[V:2]FFFF FFFF |
[V:3]CB,B,D DDDD |
[V:4]D,2z/F,/^C,/D,/ ^A,,/B,,/^F,,/G,,/D,,/G,,/B,,/D,/ |
[V:1]E2z4 z/e/^c/G/ |
[V:2]GGGG GGGG |
[V:3]D^CCC CCCC |
[V:4]E,2z/_B,/G,/B,/ E,/G,/^C,/E,/A,,/C,/E,/A,/ |
[V:1]A/a/^g/a/e/f/^c/d/ ^G/A/c/d/e/f/g/a/ |
[V:2]FAAA AAAA |
[V:3]DFFF FFFF |
[V:4]D,D,D,D, F,F,F,F, |
[V:1]c/B/z/a/z/g/z/f/ z/e/z/d/z/c/z/B/ |
[V:2]D[DB,][B,D][DB,] [B,D][B,D][B,D][B,D] |
[V:3]GG,G,G, G,G,G,G, |
[V:4]F,F,F,F, F,F,F,F, |
[V:1]z/d/z/c/z/a/z/g/ z/f/z/e/z/d/z/c/ |
[V:2]EGGG GGGG |
[V:3]G,CCC CCCC |
[V:4]E,E,E,E, E,E,E,E, |
[V:1]z/^c/z/c/z/c/z/c/ z/d/z/d/z/d/z/d/ |
[V:2]GGGG GGGG |
[V:3]G,G,G,G, FFFF |
[V:4]B,,B,,B,,B,, B,,B,,B,,B,, |
[V:1]z/_e/z/e/z/e/z/e/ z/ee/z/ee/ |
[V:2]GGGG GGGG |
[V:3]_EEEE _DDDD |
[V:4]C,C,C,C, _B,,B,,B,,B,, |
[V:1]z/[_e_E][eE][eE][e/E/]z/ [eE][eE][eE][e/E/]|
[V:2]_AAAA CCCC |
[V:3]CCCC ^FFFF |
[V:4]_A,,A,,A,,A,, A,,A,,A,,A,, |
[V:1]z/[eE][eE][eE][E/e/]z/ c/G/e/c/g/e/c'/|
[V:2][EC][EC][EC][EC] [E2C2]z2 |
[V:3]Gccc c2z2 |
[V:4]G,,G,,G,,G,, G,,2z2 |
[V:1]g/e'/c'/e'/c'/g'/e'/g'/ e'/g'/c''/g'/c''/g'/c''/g'/ |
[V:2]z8 |
[V:3]z8 |
[V:4]z8 |
[V:1]e''2z2 B2z2 |
[V:2]c2z2 F2z2 |
[V:3]E2z2 D2z2 |
[V:4]G,,2z2 G,,2z2 |
[V:1]c2(3:2:2z2z//a/e/ f/^c/d/G/B/|
[V:2][EG,][G,E][EG,][EG,] [G,F][G,F][FG,][FG,] |
[V:3]z/G/^D/E/B,/C/^F,/G,/ B,B,B,=D |
[V:4]C,,C,C,C, C,,C,C,C, |
[V:1]c2(3:2:2z2z//a/e/ f/^c/d/G/B/|
[V:2][G,E][EG,][G,E][G,E] [G,F][FG,][FG,][FG,] |
[V:3]E/G/^D/E/B,/C/^F,/G,/ B,B,B,=D |
[V:4]C,,C,C,C, C,,C,C,C, |
[V:1]c2z2 c2z2 |
[V:2][G,2E2]z2 [E2G,2]z2 |
[V:3]C2z2 C2z2 |
[V:4]z/E,/B,,/C,/^F,,/G,,/^D,,/E,,/ C,,/E,/B,,/C,/F,,/G,,/D,,/E,,/ |
[V:1]c2[E2G,2] [G,2E2][E2G,2] |
[V:2]E2C2 C2C2 |
[V:3]C2C,2 E,2G,2 |
[V:4]C,,/E,,/G,,/C,/E,/C,/G,,/E,,/ C,,/E,,/G,,/C,/E,/C,/G,,/E,,/ |
[V:1][E8G,8] |]
[V:2]C8 |]
[V:3]E,8 |]
[V:4]C,,8 |]

